icons/bhi_dashboard.svg

<svg xmlns="http://www.w3.org/2000/svg" viewBox="0 0 512 512" enable-background="new 0 0 512 512"><g fill="#010101"><path d="M224 224v-224h-162c-34.2 0-62 28.3-62 62.6v161.4h224zM288 224h223.7v-161.4c0-34.3-27.7-62.6-62-62.6h-161.7v224zM224 288h-224v161.8c0 34.3 28.3 62.2 62.5 62.2h161.5v-224zM288 288v224h161.2c34.3 0 62.8-27.9 62.8-62.2v-161.8h-224z"/></g></svg>

<?xml version="1.0" encoding="utf-8"?>
<!-- Generator: Adobe Illustrator 19.2.0, SVG Export Plug-In . SVG Version: 6.00 Build 0)  -->
<svg version="1.1" id="Layer_1" xmlns="http://www.w3.org/2000/svg" xmlns:xlink="http://www.w3.org/1999/xlink" x="0px" y="0px"
	 viewBox="0 0 512 512" enable-background="new 0 0 512 512" xml:space="preserve">
<g>
	<path fill="#010101" d="M224,224V0H62C27.8,0,0,28.3,0,62.6V224L224,224L224,224z"/>
	<path fill="#010101" d="M288,224h223.7V62.6c0-34.3-27.7-62.6-62-62.6H288V224z"/>
	<path fill="#010101" d="M224,288H0v161.8C0,484.1,28.3,512,62.5,512H224V288z"/>
	<path fill="#010101" d="M288,288v224h161.2c34.3,0,62.8-27.9,62.8-62.2V288H288z"/>
</g>
</svg>
